justvector/linkedin_alt.svg

<?xml version="1.0" encoding="iso-8859-1"?>
<!-- Generator: Adobe Illustrator 15.0.0, SVG Export Plug-In . SVG Version: 6.00 Build 0)  -->
<!DOCTYPE svg PUBLIC "-//W3C//DTD SVG 1.1//EN" "http://www.w3.org/Graphics/SVG/1.1/DTD/svg11.dtd">
<svg version="1.1" id="Icons" xmlns="http://www.w3.org/2000/svg" xmlns:xlink="http://www.w3.org/1999/xlink" x="0px" y="0px"
	 width="100px" height="100px" viewBox="0 0 100 100" style="enable-background:new 0 0 100 100;" xml:space="preserve">
<path id="LinkedIn__x28_alt_x29_" d="M87.877,5.608H11.174c-3.673,0-6.65,2.886-6.65,6.448v77.101c0,3.562,2.978,6.451,6.65,6.451
	h76.703c3.673,0,6.646-2.89,6.646-6.451V12.056C94.523,8.495,91.55,5.608,87.877,5.608z M31.809,80.944H18.211V40.31h13.598V80.944z
	 M25.011,34.759H24.92c-4.56,0-7.516-3.119-7.516-7.023c0-3.983,3.043-7.017,7.693-7.017c4.651,0,7.512,3.033,7.602,7.017
	C32.699,31.641,29.749,34.759,25.011,34.759z M80.827,80.944H67.233v-21.74c0-5.464-1.97-9.191-6.886-9.191
	c-3.761,0-5.993,2.515-6.973,4.942c-0.364,0.868-0.453,2.08-0.453,3.292v22.696H39.329c0,0,0.178-36.823,0-40.634h13.593v5.761
	c1.805-2.768,5.029-6.717,12.249-6.717c8.947,0,15.656,5.804,15.656,18.291V80.944z M52.834,46.199
	c0.024-0.038,0.056-0.084,0.088-0.128v0.128H52.834z"/>
</svg>

<?xml version="1.0" encoding="UTF-8" standalone="no"?>
<!DOCTYPE svg PUBLIC "-//W3C//DTD SVG 1.1//EN" "http://www.w3.org/Graphics/SVG/1.1/DTD/svg11.dtd">
<svg width="100%" height="100%" viewBox="0 0 100 100" version="1.1" xmlns="http://www.w3.org/2000/svg" xmlns:xlink="http://www.w3.org/1999/xlink" xml:space="preserve" xmlns:serif="http://www.serif.com/" style="fill-rule:evenodd;clip-rule:evenodd;stroke-linejoin:round;stroke-miterlimit:2;">
    <path id="LinkedIn__x28_alt_x29_" d="M94.523,89.157L4.524,89.157C4.524,92.719 7.502,95.608 11.174,95.608L87.877,95.608C91.55,95.608 94.523,92.718 94.523,89.157ZM31.809,80.944L18.211,80.944L18.211,40.31L31.809,40.31L31.809,80.944ZM25.011,34.759L24.92,34.759C20.36,34.759 29.749,34.759 25.011,34.759ZM80.827,80.944L67.233,80.944L67.233,59.204C67.233,53.74 65.263,50.013 60.347,50.013C56.586,50.013 54.354,52.528 53.374,54.955C53.01,55.823 52.921,57.035 52.921,58.247L52.921,80.943L39.329,80.943C39.329,80.943 39.507,44.12 39.329,40.309L52.922,40.309L52.922,46.07C54.727,43.302 57.951,39.353 65.171,39.353C74.118,39.353 80.827,45.157 80.827,57.644L80.827,80.944ZM52.834,46.199C52.858,46.161 52.89,46.115 52.922,46.071L52.922,46.199L52.834,46.199Z" style="fill-rule:nonzero;"/>
</svg>
